X: 19
T: Las, quel plaisir / Or y vient / La mousque
N: Derived from Ano3025-Las_quel_plaisir__Or_y_vient__La_mousque--Escorial_B.krn
C: Anonymous
%%abc-version 2.0
%%abcx-abcm2ps-target-version 5.9.1 (29 Sep 2008)
%%abc-creator hum2abc beta
%%abcx-conversion-date 2019/02/16 20:18:27
%%abc-edited-by Jesse Rodin
%%abc-edited-by Chris Gage 03-05-2015
%%abcx-initial-encoding-date 2015/03/14/
%%humdrum-veritas 1992499159
%%humdrum-veritas-data 3250821237
%%linebreak <none>
%%barnumbers 0
L: 1/4
M: 3/1
Q: 1/2=120
V: 1 clef=treble
V: 2 clef=treble-8
V: 3 clef=treble-8
K: C
[V:1] z4z4A3F | 
[V:2] z4z4D4 | 
[V:3] z4z4d2d2 | 
[V:1] G4A4B2d2- | 
[V:2] d4e3fg4 | 
[V:3] B2B2c4G4 | 
[V:1] dcBAG2^F2G4 | 
[V:2] G2G2G2A2B4 | 
[V:3] B2c2d4G4 | 
[V:1] A2G4F2E4 | 
[V:2] c2B2c2A2G4 | 
[V:3] F2G2z2d2c4 | 
[V:1] D2E2F2ED^C3B, | 
[V:2] B3cd4g4 | 
[V:3] G2G2D2F2E4 | 
[V:1] D4z4A4 | 
[V:2] f2edc4A4 | 
[V:3] D4E2E2F2F2 | 
[V:1] _B8B2A2- | 
[V:2] d4z2d2d2d2 | 
[V:3] G4G2G4F2 | 
[V:1] AGG4^F2G4- | 
[V:2] B2B2c4G4 | 
[V:3] G4A4d4 | 
[V:1] G2D2E2F2D4 | 
[V:2] z4B2c2d2B2 | 
[V:3] G2G2G2A2_B2G2 | 
[V:1] A4_B4A4 | 
[V:2] A2d4d2d4 | 
[V:3] F2F2GGG2D4 | 
[V:1] D2G4F2D2G2 | 
[V:2] G2G2G2A2_B2G2 | 
[V:3] B2c2d4G4 | 
[V:1] A3Bc2d2G2A2 | 
[V:2] F2F2A2B2c2c2 | 
[V:3] c4z4e3f | 
[V:1] B2G4^F2G4 | 
[V:2] G2G2G2A2_B2G2 | 
[V:3] g4e2c2d2e2 | 
[V:1] A2B2c4B2d2- | 
[V:2] F2G2AAA2G4 | 
[V:3] f2d2c4d4 | 
[V:1] d2G4E2F2G2 | 
[V:2] z4g4c2d2 | 
[V:3] G2G2G2G2A2B2 | 
[V:1] E4A2G4B2 | 
[V:2] e2g2e4d2g2- | 
[V:3] c4c2c2B2G2 | 
[V:1] c4B4z4 | 
[V:2] g^f^feg4G2G2 | 
[V:3] A4G4d4 | 
[V:1] B2ABc2BAG4 | 
[V:2] G2G2A2B2c4 | 
[V:3] d2g2f2d2e4 | 
[V:1] F2A3GG4^F2 | 
[V:2] d2d2c2B2A4 | 
[V:3] f4e2d4c2 | 
[V:1] G4z2D2E2F2 | 
[V:2] G4d4B2c2 | 
[V:3] d4G2G2G2A2 | 
[V:1] D2E4D4^C2 | 
[V:2] d2B2A4G4 | 
[V:3] B2G2F2F2GGE2 | 
[V:1] D4z2D2E2F2 | 
[V:2] A4G2G2G2A2 | 
[V:3] D4z4z4 | 
[V:1] G4A4F2G2- | 
[V:2] _B2G2F2F2A2=B2 | 
[V:3] d3ef2edc4 | 
[V:1] G2E2D2E4F2 | 
[V:2] c2c2g4g2c2 | 
[V:3] z4G2G2G2A2 | 
[V:1] G4A2G4c2 | 
[V:2] d2e2f2d2c4 | 
[V:3] _B2G2F2G2AAA2 | 
[V:1] B2A3GG3^FFE | 
[V:2] d2e4d4c2 | 
[V:3] G2c4B2A4 | 
[V:1] G12 |]  
[V:2] d12 |]  
[V:3] G12 |]  



